img/icons/file/preset.svg

<svg fill="none" viewBox="0 0 16 16" xmlns="http://www.w3.org/2000/svg"><path d="m1 2c0-0.552 0.448-1 1-1s1 0.448 1 1h-2zm2 12v-11h-2.5c-0.276 0-0.5-0.224-0.5-0.5v-0.5c0-1.1 0.895-2 2-2h8.5c1.38 0 2.5 1.12 2.5 2.5v10.5h2.5c0.276 0 0.5 0.224 0.5 0.5 0 1.38-1.12 2.5-2.5 2.5h-8.5c-1.1 0-2-0.895-2-2zm9-1v-10.5c0-0.828-0.672-1.5-1.5-1.5h-6.77c0.17 0.294 0.268 0.636 0.268 1v12c0 0.552 0.448 1 1 1s1-0.448 1-1v-0.5c0-0.276 0.224-0.5 0.5-0.5h5.5zm-5 1c0 0.364-0.0974 0.706-0.268 1h6.77c0.653 0 1.21-0.417 1.41-1h-7.91zm-0.5-10c-0.276 0-0.5 0.224-0.5 0.5 0 0.276 0.224 0.5 0.5 0.5h3c0.276 0 0.5-0.224 0.5-0.5 0-0.276-0.224-0.5-0.5-0.5h-3zm-0.5 2.5c0-0.276 0.224-0.5 0.5-0.5h3c0.276 0 0.5 0.224 0.5 0.5 0 0.276-0.224 0.5-0.5 0.5h-3c-0.276 0-0.5-0.224-0.5-0.5zm0.5 1.5c-0.276 0-0.5 0.224-0.5 0.5 0 0.276 0.224 0.5 0.5 0.5h2c0.276 0 0.5-0.224 0.5-0.5 0-0.276-0.224-0.5-0.5-0.5h-2z" clip-rule="evenodd" fill="#000" fill-rule="evenodd"/></svg>

<svg xmlns="http://www.w3.org/2000/svg" viewBox="0 0 16 16" fill="none">
  <path fill="#000" fill-rule="evenodd"
    d="M1 2a1 1 0 1 1 2 0H1Zm2 12V3H.5a.5.5 0 0 1-.5-.5V2a2 2 0 0 1 2-2h8.5A2.5 2.5 0 0 1 13 2.5V13h2.5a.5.5 0 0 1 .5.5 2.5 2.5 0 0 1-2.5 2.5H5a2 2 0 0 1-2-2Zm9-1V2.5A1.5 1.5 0 0 0 10.5 1H3.732c.17.294.268.636.268 1v12a1 1 0 1 0 2 0v-.5a.5.5 0 0 1 .5-.5H12Zm-5 1c0 .365-.097.706-.268 1H13.5a1.5 1.5 0 0 0 1.415-1H7ZM6.5 4a.5.5 0 1 0 0 1h3a.5.5 0 0 0 0-1h-3ZM6 6.5a.5.5 0 0 1 .5-.5h3a.5.5 0 1 1 0 1h-3a.5.5 0 0 1-.5-.5ZM6.5 8a.5.5 0 1 0 0 1h2a.5.5 0 0 0 0-1h-2Z"
    clip-rule="evenodd" />
</svg>
